img/brand/brand2.svg

<svg width="90" height="55" viewBox="0 0 90 55" fill="none" xmlns="http://www.w3.org/2000/svg">
<path d="M20.5616 26.4939C20.5616 27.0305 20.4923 27.567 20.4231 28.1036C19.6616 31.7256 16.4769 34.4085 12.6 34.6097H12.2539C7.6154 34.6097 3.94617 30.9878 3.94617 26.5609C3.94617 22.067 7.68463 18.5122 12.2539 18.5122C16.8923 18.4451 20.5616 22 20.5616 26.4939Z" fill="#479B65"/>
<path d="M14.5385 25.1524C14.7462 25.1524 14.8846 25.1524 15.0923 25.1524C15.5077 25.1524 15.8539 25.3536 16.1308 25.6219C16.3385 25.8902 16.5462 26.2255 16.6154 26.5609C16.6846 26.8963 16.7539 27.1646 16.7539 27.4999C16.7539 27.8353 16.6154 28.1036 16.4077 28.3719C16.2692 28.5731 16.0615 28.7743 15.8539 28.9085C15.7154 29.0426 15.5769 29.1097 15.3692 29.2438C15.0923 29.378 14.8154 29.5121 14.4692 29.6463C14.4 29.6463 14.3308 29.7134 14.4 29.7804C14.5385 30.2499 14.7462 30.7195 14.8846 31.256C14.8846 31.3231 14.8846 31.3231 14.8846 31.3231L14.0539 31.5243C13.9846 31.5243 13.9846 31.5914 13.9154 31.4573C13.7769 30.9877 13.5692 30.5182 13.4308 29.9816C13.4308 29.9146 13.4308 29.9146 13.3615 29.9146L12.6692 30.1158C12.6 30.1158 12.6 30.1829 12.6 30.1829L13.1539 31.7255L12.1846 32.1951C12.1154 32.1951 12.1154 32.1951 12.1154 32.128C12.0462 31.8597 11.9077 31.5914 11.8385 31.3231L11.6308 30.6524C11.6308 30.5853 11.5616 30.5853 11.5616 30.5853L10.3154 30.9877L9.62309 31.189C9.55386 31.189 9.55386 31.189 9.55386 31.1219C9.48463 30.7865 9.4154 30.3841 9.4154 30.0487C9.4154 29.9816 9.4154 29.9816 9.48463 29.9146C9.69232 29.8475 9.90001 29.7804 10.1769 29.7134C10.3846 29.6463 10.4539 29.378 10.3846 29.2438L9.55386 26.8963C9.34617 26.2926 9.13847 25.689 8.93078 25.0853C8.86155 24.817 8.58463 24.6829 8.3077 24.7499C8.03078 24.817 7.82309 24.8841 7.54617 25.0182C7.47694 25.0182 7.47694 25.0182 7.47694 25.0182L7.20001 24.0792C7.20001 24.0121 7.20001 24.0121 7.26924 24.0121C7.68463 23.878 8.16924 23.7438 8.58463 23.6097L9.13847 23.4085C9.2077 23.4085 9.2077 23.3414 9.13847 23.3414L8.65386 21.9329C8.65386 21.8658 8.65386 21.7987 8.72309 21.7987C9.00001 21.7316 9.27694 21.5975 9.55386 21.5304C9.62309 21.5304 9.62309 21.5304 9.62309 21.5975C9.76155 22.067 9.96924 22.5365 10.1077 23.006C10.1077 23.0731 10.1077 23.0731 10.1769 23.0731L10.8692 22.8719C10.9385 22.8719 10.9385 22.8719 10.9385 22.8048C10.8 22.3353 10.5923 21.8658 10.4539 21.3963C10.4539 21.3292 10.4539 21.3292 10.5231 21.3292L11.3539 21.0609C11.4231 21.0609 11.4231 21.0609 11.4923 21.128L11.9769 22.5365C11.9769 22.6036 12.0462 22.6036 12.1154 22.6036C12.5308 22.4695 12.9462 22.4695 13.3615 22.4695C13.7769 22.4695 14.1923 22.6036 14.5385 22.8719C14.7462 23.006 14.8846 23.2073 15.0231 23.4755C15.1615 23.7438 15.2308 24.0121 15.2308 24.2804C15.2308 24.6829 15.0923 25.0182 14.8154 25.2865L14.5385 25.1524ZM12.4615 25.4877C12.5308 25.4877 12.6 25.4207 12.6692 25.3536C12.7385 25.2865 12.8077 25.2195 12.8769 25.1524C13.2231 24.8841 13.2923 24.4146 13.0154 24.0121C12.8769 23.8109 12.6692 23.6768 12.4615 23.6097C12.1154 23.5426 11.7692 23.6097 11.4231 23.6768C11.1462 23.7438 10.8692 23.878 10.5231 23.9451C10.4539 23.9451 10.4539 24.0121 10.4539 24.0792C10.6616 24.6158 10.8692 25.1524 11.0077 25.689C11.0077 25.756 11.0077 25.8231 11.0769 25.8902C11.1462 25.8902 11.2154 25.8902 11.2846 25.8231C11.7 25.8231 12.1154 25.689 12.4615 25.4877ZM13.9846 28.3719C14.1231 28.3048 14.1923 28.2377 14.3308 28.1036C14.4692 27.9695 14.6077 27.8353 14.6769 27.7012C14.8154 27.2987 14.6769 26.8963 14.4 26.6951C14.1923 26.5609 13.9154 26.4938 13.7077 26.4938C13.3615 26.4938 13.0846 26.5609 12.7385 26.628C12.3923 26.6951 11.9769 26.8292 11.6308 26.9634C11.5615 26.9634 11.5616 27.0304 11.5616 27.0304C11.7692 27.7012 12.0462 28.3719 12.2539 28.9756C12.2539 29.0426 12.3231 29.0426 12.3923 29.0426C12.6 28.9755 12.8769 28.9085 13.0846 28.7743C13.3615 28.7073 13.7077 28.5731 13.9846 28.3719Z" fill="#FEFEFE"/>
<path d="M26.4462 24.6171C26.8615 24.6171 27.2077 24.6842 27.4846 24.8183C27.7615 24.9525 28.0385 25.1537 28.2462 25.3549C28.4538 25.6232 28.5923 25.8915 28.6615 26.2269C28.7308 26.5622 28.8 26.8976 28.8 27.233C28.8 27.7695 28.6615 28.3061 28.4538 28.8427C28.2462 29.3793 27.9692 29.7817 27.5538 30.1842C27.2077 30.5866 26.7231 30.8549 26.2385 31.0561C25.7538 31.2573 25.2 31.3915 24.5769 31.3915C24.5077 31.3915 24.3692 31.3915 24.1615 31.3915C23.9538 31.3915 23.7462 31.3915 23.5385 31.3244C23.2615 31.3244 23.0538 31.2573 22.7769 31.1903C22.5 31.1232 22.2231 31.0561 22.0154 30.922L24.2308 21.9342L26.2385 21.6659L25.4077 24.8183C25.5462 24.7513 25.7538 24.6842 25.8923 24.6171C26.0308 24.55 26.2385 24.6171 26.4462 24.6171ZM24.7846 29.8488C25.0615 29.8488 25.3385 29.7817 25.6154 29.6476C25.8923 29.5134 26.1 29.3122 26.3077 29.111C26.5154 28.9098 26.6538 28.6415 26.7923 28.3061C26.9308 28.0378 26.9308 27.7025 26.9308 27.3671C26.9308 26.9647 26.8615 26.6964 26.7231 26.4281C26.5846 26.1598 26.3077 26.0927 25.9615 26.0927C25.8231 26.0927 25.6846 26.0927 25.4769 26.1598C25.2692 26.2269 25.1308 26.2939 24.9923 26.4281L24.1615 29.7817C24.2308 29.7817 24.2308 29.7817 24.3 29.7817C24.3692 29.7817 24.3692 29.7817 24.4385 29.7817C24.5077 29.7817 24.5077 29.7817 24.5769 29.7817C24.6462 29.7817 24.7154 29.8488 24.7846 29.8488Z" fill="white"/>
<path d="M31.2231 31.1891H29.3538L30.9461 24.683H32.8154L31.2231 31.1891ZM32.1231 23.9452C31.8461 23.9452 31.6384 23.8782 31.4307 23.744C31.2231 23.6099 31.0846 23.3416 31.0846 23.0733C31.0846 22.8721 31.1538 22.7379 31.2231 22.6038C31.2923 22.4696 31.3615 22.3355 31.5 22.2013C31.6384 22.0672 31.7769 22.0001 31.9154 21.933C32.0538 21.866 32.2615 21.866 32.4 21.866C32.6769 21.866 32.8846 21.933 33.0923 22.0672C33.3 22.2013 33.4384 22.4696 33.4384 22.7379C33.4384 22.9391 33.3692 23.0733 33.3 23.2074C33.2307 23.3416 33.1615 23.4757 33.0231 23.6099C32.8846 23.744 32.7461 23.8111 32.6077 23.8782C32.4692 23.8782 32.3307 23.9452 32.1231 23.9452Z" fill="white"/>
<path d="M34.7538 23.0733L36.7615 22.8051L36.2769 24.7502H38.4231L38.0077 26.2258H35.9308L35.3077 28.5063C35.2384 28.7075 35.2384 28.8416 35.2384 29.0429C35.2384 29.177 35.2384 29.3782 35.3077 29.4453C35.3769 29.5794 35.4461 29.6465 35.5846 29.7136C35.7231 29.7807 35.9308 29.7807 36.1384 29.7807C36.3461 29.7807 36.5538 29.7807 36.7615 29.7136C36.9692 29.6465 37.1769 29.6465 37.3154 29.5794L37.4538 30.988C37.1769 31.0551 36.9 31.1892 36.6231 31.1892C36.3461 31.2563 36 31.2563 35.5846 31.2563C35.0308 31.2563 34.5461 31.1892 34.2 30.988C33.8538 30.7868 33.6461 30.5855 33.5077 30.3173C33.3692 30.049 33.3 29.7136 33.3 29.3112C33.3 28.9087 33.3692 28.5063 33.5077 28.1038L34.7538 23.0733Z" fill="white"/>
<path d="M38.423 28.6403C38.423 28.1037 38.4923 27.5671 38.7 27.0305C38.9077 26.561 39.1846 26.0915 39.5307 25.7561C39.8769 25.3537 40.2923 25.0854 40.7769 24.8842C41.2615 24.683 41.8153 24.5488 42.4384 24.5488C42.8538 24.5488 43.1307 24.6159 43.4769 24.683C43.7538 24.75 44.0307 24.8171 44.3077 24.9513L43.6153 26.3598C43.4769 26.2927 43.2692 26.2257 43.0615 26.1586C42.8538 26.0915 42.6461 26.0915 42.3692 26.0915C41.7461 26.0915 41.2615 26.2927 40.8461 26.6952C40.5 27.0976 40.2923 27.7013 40.2923 28.372C40.2923 28.7744 40.3615 29.1098 40.5692 29.3781C40.7769 29.6464 41.123 29.7805 41.6076 29.7805C41.8846 29.7805 42.0923 29.7805 42.3 29.7135C42.5077 29.6464 42.7153 29.5793 42.923 29.5122L43.0615 30.9879C42.8538 31.0549 42.5769 31.1891 42.3 31.2561C42.023 31.3232 41.6769 31.3903 41.2615 31.3903C40.7076 31.3903 40.2923 31.3232 39.9461 31.1891C39.6 31.0549 39.2538 30.8537 39.0461 30.5854C38.8384 30.3171 38.6307 30.0488 38.5615 29.7135C38.4923 29.3781 38.423 28.9757 38.423 28.6403Z" fill="white"/>
<path d="M46.8692 31.3903C46.3846 31.3903 46.0385 31.3232 45.6923 31.1891C45.3462 31.0549 45.0692 30.8537 44.8615 30.6525C44.6538 30.3842 44.5154 30.1159 44.3769 29.7805C44.2385 29.4452 44.2385 29.1098 44.2385 28.7074C44.2385 28.2379 44.3077 27.7013 44.5154 27.2318C44.6538 26.7622 44.9308 26.2927 45.2769 25.8903C45.6231 25.4879 45.9692 25.1525 46.4538 24.9513C46.9385 24.683 47.4231 24.5488 48.0462 24.5488C48.4615 24.5488 48.8769 24.6159 49.2231 24.75C49.5692 24.8842 49.8462 25.0854 50.0538 25.2866C50.2615 25.5549 50.4 25.8232 50.5385 26.1586C50.6769 26.494 50.6769 26.8293 50.6769 27.2318C50.6769 27.7013 50.6077 28.2379 50.4692 28.7074C50.3308 29.1769 50.0538 29.6464 49.7769 30.0488C49.4308 30.4513 49.0846 30.7866 48.6 30.9879C48.1154 31.1891 47.4923 31.3903 46.8692 31.3903ZM47.8385 26.0915C47.5615 26.0915 47.2846 26.1586 47.0769 26.2927C46.8692 26.4269 46.6615 26.6281 46.5231 26.8964C46.3846 27.1647 46.2462 27.3659 46.1769 27.7013C46.1077 27.9696 46.0385 28.2379 46.0385 28.5061C46.0385 28.9086 46.1077 29.244 46.2462 29.4452C46.3846 29.6464 46.6615 29.7805 47.0077 29.7805C47.2846 29.7805 47.5615 29.7135 47.7692 29.5793C47.9769 29.4452 48.1846 29.2439 48.3231 28.9757C48.4615 28.7074 48.6 28.5061 48.6692 28.1708C48.7385 27.9025 48.8077 27.6342 48.8077 27.3659C48.8077 26.9635 48.7385 26.6281 48.6 26.4269C48.3923 26.2257 48.1846 26.0915 47.8385 26.0915Z" fill="white"/>
<path d="M53.0308 31.1891H51.1616L52.7539 24.683H54.6231L53.0308 31.1891ZM53.9308 23.9452C53.6539 23.9452 53.4462 23.8782 53.2385 23.744C53.0308 23.6099 52.8923 23.3416 52.8923 23.0733C52.8923 22.8721 52.9616 22.7379 53.0308 22.6038C53.1 22.4696 53.1693 22.3355 53.3077 22.2013C53.4462 22.0672 53.5846 22.0001 53.7231 21.933C53.8616 21.866 54.0693 21.866 54.2077 21.866C54.4846 21.866 54.6923 21.933 54.9 22.0672C55.1077 22.2013 55.2462 22.4696 55.2462 22.7379C55.2462 22.9391 55.1769 23.0733 55.1077 23.2074C55.0385 23.3416 54.9693 23.4757 54.8308 23.6099C54.6923 23.744 54.5539 23.8111 54.4154 23.8782C54.2769 23.8782 54.1385 23.9452 53.9308 23.9452Z" fill="white"/>
<path d="M56.2846 25.0183C56.4231 24.9513 56.5615 24.9513 56.7692 24.8842C56.9769 24.8171 57.1154 24.75 57.3231 24.75C57.5308 24.683 57.8077 24.683 58.0154 24.6159C58.2923 24.6159 58.5692 24.5488 58.9154 24.5488C59.8846 24.5488 60.5769 24.8171 60.9923 25.4208C61.3385 25.9574 61.4077 26.7622 61.2 27.7013L60.3 31.1891H58.4308L59.2615 27.7683C59.3308 27.5671 59.3308 27.3659 59.4 27.1647C59.4692 26.9635 59.4 26.7622 59.4 26.6281C59.4 26.494 59.2615 26.3598 59.1923 26.2257C59.0538 26.1586 58.8461 26.0915 58.6385 26.0915C58.3615 26.0915 58.1538 26.0915 57.8769 26.1586L56.6308 31.1891H54.7615L56.2846 25.0183Z" fill="white"/>
<path d="M67.1539 30.9209C67.0154 31.055 66.7385 31.1221 66.3923 31.2562C66.0462 31.3904 65.6308 31.3904 65.2154 31.3904C64.4539 31.3904 63.8308 31.1891 63.4846 30.7196C63.0692 30.3172 62.9308 29.7135 62.9308 28.9757C62.9308 28.4391 63 27.9026 63.2077 27.366C63.4154 26.8294 63.6231 26.427 63.9692 26.0245C64.3154 25.6221 64.7308 25.2867 65.2154 25.0855C65.7 24.8843 66.2539 24.7501 66.9462 24.7501C67.3616 24.7501 67.8462 24.8172 68.2616 24.9513L67.8462 25.6221C67.6385 25.555 67.4308 25.4879 67.2923 25.4879C67.1539 25.4879 66.9462 25.4209 66.7385 25.4209C66.2539 25.4209 65.9077 25.4879 65.4923 25.6891C65.1462 25.8904 64.8 26.1587 64.5231 26.427C64.2462 26.7623 64.0385 27.0977 63.9 27.5001C63.7616 27.9026 63.6923 28.3721 63.6923 28.8416C63.6923 29.3782 63.8308 29.7806 64.1077 30.116C64.3846 30.4513 64.8 30.5855 65.3539 30.5855C65.5616 30.5855 65.7 30.5855 65.9077 30.5184C66.1154 30.5184 66.2539 30.4513 66.3923 30.3843C66.5308 30.3172 66.6693 30.3172 66.8077 30.2501C66.9462 30.183 67.0154 30.1831 67.0846 30.116L67.1539 30.9209Z" fill="white"/>
<path d="M72.7615 31.3232C72.6923 31.2562 72.6923 31.122 72.6231 30.9879C72.5539 30.8537 72.5539 30.7196 72.5539 30.5854C72.2769 30.8537 71.9308 31.0549 71.5846 31.1891C71.2385 31.3232 70.8923 31.3903 70.5462 31.3903C70.2692 31.3903 69.9923 31.3232 69.7846 31.2561C69.5769 31.1891 69.3 31.0549 69.1615 30.8537C68.9539 30.6525 68.8154 30.4513 68.6769 30.1159C68.5385 29.8476 68.4692 29.4452 68.4692 29.0427C68.4692 28.372 68.6077 27.7683 68.8154 27.2318C69.0231 26.6952 69.3692 26.2257 69.7154 25.8903C70.1308 25.4879 70.5462 25.2196 71.1 25.0183C71.6539 24.8171 72.2077 24.683 72.9 24.683C73.4539 24.683 73.9385 24.7501 74.4231 24.9513L73.4539 28.7744C73.3846 28.9757 73.3846 29.1769 73.3154 29.3781C73.2462 29.5793 73.2462 29.7135 73.2462 29.9147C73.2462 30.1159 73.2462 30.3171 73.3154 30.5183C73.3846 30.7196 73.4539 30.9208 73.5231 31.1891L72.7615 31.3232ZM73.5231 25.5549C73.3846 25.5549 73.2462 25.4879 73.1077 25.4879C72.9692 25.4879 72.8308 25.4879 72.6923 25.4879C72.1385 25.4879 71.7231 25.5549 71.3077 25.7562C70.8923 25.9574 70.5462 26.2257 70.2692 26.561C69.9923 26.8964 69.7846 27.2318 69.6462 27.6342C69.5077 28.0366 69.4385 28.4391 69.4385 28.9086C69.4385 29.244 69.4385 29.5122 69.5077 29.7805C69.5769 29.9818 69.6462 30.183 69.7846 30.3171C69.9231 30.4513 70.0615 30.5854 70.2 30.5854C70.3385 30.5854 70.5462 30.6525 70.6846 30.6525C71.0308 30.6525 71.3769 30.5854 71.6539 30.3842C71.9308 30.183 72.2769 29.9818 72.5539 29.7135C72.5539 29.5122 72.5539 29.244 72.6231 28.9757C72.6923 28.7074 72.7615 28.4391 72.8308 28.1708L73.5231 25.5549Z" fill="white"/>
<path d="M74.9077 30.183C75.2539 30.3171 75.5308 30.4513 75.7385 30.5183C75.9462 30.5854 76.2231 30.5854 76.5693 30.5854C76.777 30.5854 76.9846 30.5854 77.1923 30.5183C77.4 30.4513 77.5385 30.3842 77.677 30.3171C77.8154 30.2501 77.9539 30.1159 78.0231 29.9818C78.0923 29.8476 78.1616 29.6464 78.1616 29.4452C78.1616 29.244 78.0923 29.0427 77.9539 28.9086C77.8154 28.7744 77.677 28.6403 77.4693 28.5732C77.2616 28.5062 77.1231 28.372 76.8462 28.2379C76.6385 28.1708 76.4308 28.0366 76.2231 27.9025C76.0154 27.7683 75.877 27.6342 75.7385 27.433C75.6 27.2318 75.5308 26.9635 75.5308 26.6952C75.5308 26.3598 75.6 26.0244 75.7385 25.7562C75.877 25.4879 76.0846 25.2866 76.2923 25.1525C76.5 25.0183 76.777 24.8842 77.0539 24.8171C77.3308 24.7501 77.677 24.683 77.9539 24.683C78.2308 24.683 78.5077 24.683 78.7846 24.7501C79.0616 24.8171 79.3385 24.8842 79.5462 24.9513L79.2 25.6891C78.9923 25.622 78.7846 25.5549 78.577 25.4879C78.3693 25.4208 78.0923 25.4208 77.8846 25.4208C77.677 25.4208 77.4693 25.4208 77.2616 25.4879C77.0539 25.5549 76.9154 25.622 76.777 25.6891C76.6385 25.7562 76.5 25.8903 76.4308 26.0244C76.3616 26.1586 76.2923 26.3598 76.2923 26.561C76.2923 26.7622 76.3616 26.9635 76.5 27.0976C76.6385 27.2318 76.777 27.3659 76.9846 27.5001C77.1923 27.6342 77.3308 27.7013 77.6077 27.8354C77.8154 27.9025 78.0231 28.0366 78.2308 28.1708C78.4385 28.3049 78.577 28.4391 78.7154 28.6403C78.8539 28.8415 78.9231 29.0427 78.9231 29.3781C78.9231 29.7135 78.8539 30.0488 78.7154 30.3171C78.577 30.5854 78.3693 30.7866 78.1616 30.9879C77.9539 31.122 77.677 31.2561 77.4 31.3232C77.1231 31.3903 76.777 31.4574 76.5 31.4574C76.1539 31.4574 75.8077 31.3903 75.5308 31.3232C75.2539 31.2561 74.9077 31.122 74.6308 30.9879L74.9077 30.183Z" fill="white"/>
<path d="M80.9308 31.1891H80.1L82.3847 21.7318L83.2154 21.5977L82.3847 24.9513C82.9385 24.7501 83.4231 24.6159 83.9077 24.6159C84.1847 24.6159 84.4616 24.683 84.7385 24.7501C85.0154 24.8172 85.2231 24.9513 85.3616 25.1525C85.5693 25.2867 85.7077 25.555 85.777 25.7562C85.9154 26.0245 85.9154 26.2928 85.9154 26.6281C85.9154 26.8294 85.9154 27.0306 85.8462 27.2989C85.8462 27.5001 85.777 27.7684 85.7077 27.9696L84.9462 31.122H84.1154L84.8077 28.305C84.877 28.0367 84.9462 27.7684 85.0154 27.5001C85.0847 27.2318 85.0847 26.9635 85.0847 26.6952C85.0847 26.4269 85.0154 26.2257 84.9462 26.0916C84.877 25.8903 84.7385 25.7562 84.6 25.6891C84.4616 25.622 84.3231 25.4879 84.1154 25.4879C83.9077 25.4879 83.7693 25.4208 83.5616 25.4208C83.2847 25.4208 83.077 25.4208 82.8 25.4879C82.5231 25.555 82.3154 25.622 82.1077 25.6891L80.9308 31.1891Z" fill="white"/>
</svg>

<svg width="90" height="55" viewBox="0 0 90 55" fill="none" xmlns="http://www.w3.org/2000/svg"><path d="M20.562 26.494c0 .537-.07 1.073-.139 1.61-.761 3.622-3.946 6.304-7.823 6.506h-.346c-4.639 0-8.308-3.622-8.308-8.05 0-4.493 3.739-8.048 8.308-8.048 4.638-.067 8.308 3.488 8.308 7.982z" fill="#479B65"/><path d="M14.539 25.152h.553c.416 0 .762.202 1.039.47.207.268.415.604.484.939.07.335.139.604.139.939 0 .335-.139.604-.346.872a2.078 2.078 0 01-.554.537c-.139.134-.277.2-.485.335a11.43 11.43 0 01-.9.402c-.069 0-.138.067-.069.134.139.47.346.94.485 1.476v.067l-.831.201c-.07 0-.07.067-.139-.067-.138-.47-.346-.939-.484-1.475 0-.067 0-.067-.07-.067l-.692.2c-.069 0-.069.068-.069.068l.554 1.543-.97.47c-.069 0-.069 0-.069-.068-.069-.268-.207-.537-.277-.805l-.207-.67c0-.068-.07-.068-.07-.068l-1.246.403-.692.201c-.07 0-.07 0-.07-.067-.068-.335-.138-.738-.138-1.073 0-.067 0-.067.07-.134.207-.067.415-.135.692-.202.208-.067.277-.335.208-.47l-.831-2.347-.623-1.81c-.07-.269-.346-.403-.623-.336a3.45 3.45 0 00-.762.268h-.07L7.2 24.08c0-.067 0-.067.07-.067.415-.134.9-.268 1.315-.402l.553-.201c.07 0 .07-.068 0-.068l-.484-1.408c0-.067 0-.134.07-.134.276-.067.553-.201.83-.269.07 0 .07 0 .07.067.138.47.345.94.484 1.409 0 .067 0 .067.069.067l.692-.201c.07 0 .07 0 .07-.067-.139-.47-.347-.94-.485-1.409 0-.067 0-.067.07-.067l.83-.268c.07 0 .07 0 .138.067l.485 1.409c0 .067.07.067.138.067.416-.134.831-.134 1.246-.134.416 0 .831.134 1.178.402.207.134.346.335.484.604.139.268.208.536.208.804 0 .403-.139.738-.416 1.006l-.276-.134zm-2.078.336c.07 0 .139-.067.208-.134l.208-.202c.346-.268.415-.737.138-1.14a1.075 1.075 0 00-.554-.402c-.346-.067-.692 0-1.038.067-.277.067-.554.201-.9.268-.07 0-.07.067-.07.134.209.537.416 1.073.555 1.61 0 .067 0 .134.069.201.07 0 .138 0 .208-.067.415 0 .83-.134 1.176-.335zm1.524 2.884c.138-.067.207-.134.346-.268.138-.134.277-.269.346-.403.138-.402 0-.805-.277-1.006a1.367 1.367 0 00-.692-.201c-.347 0-.623.067-.97.134a6.96 6.96 0 00-1.107.335c-.07 0-.07.067-.07.067.208.671.485 1.342.693 1.946 0 .067.07.067.138.067.208-.067.485-.134.693-.269.276-.067.623-.2.9-.402z" fill="#FEFEFE"/><path d="M26.446 24.617c.415 0 .762.067 1.039.201.277.134.553.336.761.537.208.268.346.537.416.872.069.335.138.67.138 1.006 0 .537-.139 1.073-.346 1.61a3.564 3.564 0 01-.9 1.341c-.346.403-.83.67-1.316.872a4.299 4.299 0 01-1.661.335h-.416c-.207 0-.415 0-.623-.067-.276 0-.484-.067-.761-.134s-.554-.134-.762-.268l2.216-8.988 2.007-.268-.83 3.152c.138-.067.346-.134.484-.2.139-.068.346 0 .554 0zm-1.661 5.232c.276 0 .553-.067.83-.201.277-.135.485-.336.693-.537.207-.201.346-.47.484-.805.139-.268.139-.604.139-.939 0-.402-.07-.67-.208-.939-.138-.268-.415-.335-.761-.335-.139 0-.277 0-.485.067-.208.067-.346.134-.485.268l-.83 3.354h.414c.07 0 .138.067.208.067zm6.438 1.341h-1.87l1.593-6.507h1.87l-1.593 6.506zm.9-7.245c-.277 0-.485-.067-.692-.201a.818.818 0 01-.346-.67c0-.202.069-.336.138-.47a1.4 1.4 0 01.277-.403c.138-.134.277-.2.415-.268.139-.067.346-.067.485-.067.277 0 .485.067.692.201a.817.817 0 01.346.67c0 .202-.069.336-.138.47-.07.135-.139.269-.277.403s-.277.201-.415.268c-.139 0-.277.067-.485.067zm2.631-.872l2.008-.268-.485 1.945h2.146l-.415 1.476H35.93l-.623 2.28c-.07.201-.07.336-.07.537 0 .134 0 .335.07.402a.535.535 0 00.277.269c.138.067.346.067.553.067.208 0 .416 0 .623-.067.208-.067.416-.067.554-.135l.139 1.409c-.277.067-.554.201-.83.201-.278.067-.624.067-1.04.067-.553 0-1.038-.067-1.384-.268-.346-.201-.554-.402-.692-.67-.139-.269-.208-.604-.208-1.007 0-.402.07-.805.208-1.207l1.246-5.03zm3.669 5.567c0-.536.07-1.073.277-1.61.208-.469.485-.939.83-1.274.347-.402.762-.67 1.247-.872a4.298 4.298 0 011.661-.335c.416 0 .693.067 1.039.134.277.067.554.134.83.268l-.692 1.409c-.138-.067-.346-.134-.553-.201-.208-.067-.416-.067-.693-.067-.623 0-1.108.2-1.523.603-.346.403-.554 1.006-.554 1.677 0 .402.07.738.277 1.006.208.268.554.402 1.039.402.277 0 .484 0 .692-.067l.623-.2.139 1.475c-.208.067-.485.201-.762.268a4.316 4.316 0 01-1.038.134c-.554 0-.97-.067-1.316-.2-.346-.135-.692-.336-.9-.605-.208-.268-.415-.536-.484-.872-.07-.335-.139-.737-.139-1.073zm8.447 2.75c-.485 0-.831-.067-1.178-.2a2.498 2.498 0 01-.83-.538 3.58 3.58 0 01-.485-.872c-.139-.335-.139-.67-.139-1.073 0-.47.07-1.006.277-1.475.139-.47.416-.94.762-1.342.346-.402.692-.738 1.177-.939a3.11 3.11 0 011.592-.402c.416 0 .83.067 1.177.201.346.134.623.335.83.537.209.268.347.536.486.872.138.335.138.67.138 1.073 0 .47-.07 1.006-.208 1.475-.138.47-.415.94-.692 1.342-.346.402-.692.738-1.177.939-.485.201-1.108.402-1.73.402zm.969-5.299a1.43 1.43 0 00-.762.202 1.602 1.602 0 00-.554.603c-.138.269-.277.47-.346.805-.07.269-.139.537-.139.805 0 .403.07.738.208.94.139.2.415.334.762.334.277 0 .553-.067.761-.2.208-.135.416-.336.554-.604.139-.269.277-.47.346-.805.07-.268.139-.537.139-.805 0-.402-.07-.738-.208-.94-.208-.2-.415-.334-.761-.334zm5.191 5.099h-1.868l1.592-6.507h1.87l-1.593 6.506zm.9-7.245c-.276 0-.484-.067-.691-.201a.817.817 0 01-.347-.67c0-.202.07-.336.139-.47.069-.134.138-.268.277-.403.138-.134.277-.2.415-.268.139-.067.346-.067.485-.067.277 0 .484.067.692.201a.817.817 0 01.346.67c0 .202-.07.336-.138.47a1.4 1.4 0 01-.277.403 1.455 1.455 0 01-.416.268c-.138 0-.276.067-.484.067zm2.355 1.073c.138-.067.277-.067.484-.134.208-.067.346-.134.554-.134.208-.067.485-.067.692-.134.277 0 .554-.067.9-.067.97 0 1.662.268 2.077.872.347.536.416 1.341.208 2.28l-.9 3.488h-1.87l.831-3.42c.07-.202.07-.403.139-.604.07-.201 0-.403 0-.537s-.139-.268-.208-.402a1.338 1.338 0 00-.553-.134c-.278 0-.485 0-.762.067l-1.246 5.03h-1.87l1.524-6.17zm10.869 5.902c-.139.135-.415.202-.762.336-.346.134-.761.134-1.177.134-.761 0-1.384-.2-1.73-.67-.416-.403-.554-1.006-.554-1.744 0-.537.069-1.073.277-1.61.207-.537.415-.939.761-1.341.346-.403.762-.738 1.246-.94a4.394 4.394 0 011.731-.335c.416 0 .9.067 1.316.201l-.416.671c-.208-.067-.415-.134-.554-.134-.138 0-.346-.067-.553-.067-.485 0-.831.067-1.247.268-.346.201-.692.47-.969.738-.277.335-.484.67-.623 1.073a4.203 4.203 0 00-.208 1.342c0 .536.139.939.416 1.274.277.335.692.47 1.246.47.208 0 .346 0 .554-.068.207 0 .346-.067.484-.134.139-.067.277-.067.416-.134.138-.067.207-.067.277-.134l.069.805zm5.607.403c-.069-.067-.069-.201-.138-.335-.07-.134-.07-.268-.07-.403a2.89 2.89 0 01-.968.604 2.856 2.856 0 01-1.039.201 2.56 2.56 0 01-.761-.134c-.208-.067-.485-.201-.623-.402a1.993 1.993 0 01-.485-.738c-.139-.268-.208-.67-.208-1.073 0-.671.139-1.275.346-1.811a3.866 3.866 0 01.9-1.342c.416-.402.831-.67 1.385-.872a5.042 5.042 0 011.8-.335c.554 0 1.038.067 1.523.268l-.97 3.823c-.068.202-.068.403-.138.604-.069.201-.069.335-.069.537 0 .2 0 .402.07.603.069.202.138.403.207.671l-.761.134zm.762-5.768c-.138 0-.277-.067-.415-.067h-.416c-.553 0-.969.067-1.384.268a3.05 3.05 0 00-1.039.805c-.277.335-.484.67-.623 1.073a3.793 3.793 0 00-.207 1.275c0 .335 0 .603.069.872.069.2.138.402.277.536.138.134.276.268.415.268.138 0 .346.067.485.067.346 0 .692-.067.969-.268s.623-.402.9-.67c0-.202 0-.47.07-.738.068-.269.138-.537.207-.805l.692-2.616zm1.385 4.628c.346.134.623.268.83.335.208.067.485.067.831.067.208 0 .416 0 .623-.067.208-.067.347-.134.485-.2a.821.821 0 00.346-.336c.07-.134.139-.336.139-.537a.749.749 0 00-.208-.536c-.139-.135-.277-.269-.485-.336-.207-.067-.346-.201-.623-.335-.208-.067-.415-.201-.623-.335a1.594 1.594 0 01-.484-.47 1.32 1.32 0 01-.208-.738c0-.335.069-.67.207-.939.139-.268.347-.47.554-.604a2.6 2.6 0 01.762-.335c.277-.067.623-.134.9-.134s.554 0 .83.067c.278.067.554.134.762.201l-.346.738-.623-.201c-.208-.067-.485-.067-.692-.067-.208 0-.416 0-.623.067a3.418 3.418 0 00-.485.201.822.822 0 00-.346.335c-.07.135-.139.336-.139.537s.07.402.208.537c.138.134.277.268.485.402.207.134.346.201.623.335.207.067.415.202.623.336.208.134.346.268.484.47.139.2.208.402.208.737 0 .335-.07.67-.208.94-.138.267-.346.469-.553.67a2.6 2.6 0 01-.762.335c-.277.067-.623.134-.9.134a4.23 4.23 0 01-.97-.134 4.907 4.907 0 01-.9-.335l.278-.805zm6.022 1.007h-.83l2.285-9.458.83-.134-.83 3.353c.553-.2 1.038-.335 1.523-.335.277 0 .554.067.83.134.277.067.485.201.624.402.207.135.346.403.415.604.138.268.138.537.138.872 0 .201 0 .403-.069.67 0 .202-.069.47-.138.672l-.762 3.152h-.83l.692-2.817.207-.805c.07-.268.07-.537.07-.805s-.07-.47-.139-.603a.693.693 0 00-.346-.403c-.138-.067-.277-.201-.485-.201-.207 0-.346-.067-.553-.067-.277 0-.485 0-.762.067a8.932 8.932 0 00-.692.201l-1.177 5.5z" fill="#fff"/></svg>
